!!!COM: Music21
!!!OTL: barndance_Gimboling-Gyre--The
!!!OMV: barndance_Gimboling-Gyre--The
**kern
*clefG2
*k[f#]
*G:
*M4/4
=1
12ddL
12cc#X
12ddJ
=
8.eeL
16ddJk
8.bL
16gJk
8.dL
16gJk
16bKL
8.ggJ
=
8.ff#L
16eeJk
8.ccL
16aJk
4e
12ddL
12cc#X
12ddJ
=
8.eeL
16ddJk
8.ccL
16aJk
4e
12ddL
12cc#X
12ddJ
=
8.eeL
16ddJk
8.bL
16gJk
4d
12ddL
12cc#X
12ddJ
!!linebreak:original
=
12eeL
12dd
12bJ
8.gL
16eJk
12dL
12g
12bJ
8.ddL
16ggJk
=
16ff#KL
8.eeJ
8.ccL
16aJk
4ff#
12ddL
12cc#X
12ddJ
=
8.eeL
16ddJk
8.ccL
16aJk
8.eL
16e#XJk
16f#KL
8.bJ
=
4g
4gg
4g
4ryy
=||
*M4/4
12ddL
12cc#X
12ddJ
!!linebreak:original
=
8.eeL
16ddJk
8.bL
16gJk
8.dL
16gJk
16bKL
8.ggJ
=
8.ff#L
16eeJk
8.ccL
16aJk
4e
12ddL
12cc#X
12ddJ
=
8.eeL
16ddJk
8.ccL
16aJk
4e
12ddL
12cc#X
12ddJ
=
8.eeL
16ddJk
8.bL
16gJk
4d
12ddL
12cc#X
12ddJ
!!linebreak:original
=
12eeL
12dd
12bJ
8.gL
16eJk
12dL
12g
12bJ
8.ddL
16ggJk
=
16ff#KL
8.eeJ
8.ccL
16aJk
4ff#
12ddL
12cc#X
12ddJ
=
8.eeL
16ddJk
8.ccL
16aJk
8.eL
16e#XJk
16f#KL
8.bJ
=
4g
4gg
4g
4ryy
=||
12bL
12a
12gJ
2.ryy
!!linebreak:original
=
8.eL
16d#XJk
8.eL
16f#Jk
8.gL
16f#Jk
8.gL
16eJk
=
12dL
12g
12bJ
12ddL
12gg
12aaJ
4bb
12bbL
12aa
12ggJ
=
8.ff#L
16eeJk
8.ccL
16aJk
8.eL
16e#XJk
8.f#L
16bJk
=
12gL
12d
12gJ
12bL
12g
12bJ
4gg
12bL
12a
12gJ
!!linebreak:original
=
8.eL
16d#XJk
8.eL
16f#Jk
8.gL
16f#Jk
8.gL
16aJk
=
8.bL
16a#XJk
12bL
12dd
12ggJ
4bb
12bbL
12aan
12ggJ
=
8.ff#L
16eeJk
8.ccL
16aJk
8.eeL
16ee#XJk
16ff#KL
8.bbJ
=
4gg'
4dd'
4g'
4ryy
=||
12bL
12a
12gJ
2.ryy
!!linebreak:original
=
8.eL
16d#XJk
8.eL
16f#Jk
8.gL
16f#Jk
8.gL
16eJk
=
12dL
12g
12bJ
12ddL
12gg
12aaJ
4bb
12bbL
12aa
12ggJ
=
8.ff#L
16eeJk
8.ccL
16aJk
8.eL
16e#XJk
8.f#L
16bJk
=
12gL
12d
12gJ
12bL
12g
12bJ
4gg
12bL
12a
12gJ
!!linebreak:original
=
8.eL
16d#XJk
8.eL
16f#Jk
8.gL
16f#Jk
8.gL
16aJk
=
8.bL
16a#XJk
12bL
12dd
12ggJ
4bb
12bbL
12aan
12ggJ
=
8.ff#L
16eeJk
8.ccL
16aJk
8.eeL
16ee#XJk
16ff#KL
8.bbJ
=
4gg'
4dd'
4g'
4ryy
=||
*-
